X:1
T:Title
%%score { ( 1 3 ) | ( 2 4 ) }
L:1/8
Q:1/4=100
M:4/4
K:Ab
V:1 treble nm="Grand Piano"
V:3 treble 
V:2 bass 
V:4 bass 
V:1
 A2 A2 FECE | A2 A2 A4 | B2 B2 BGFE | z4 B4 | A2 A2 FECE | A2 [GB]2 c4 | BBBB c2 =d2 | [Ge]8 | %8
w: J.~Lincoln~Hall * * * * *||||||||
 e2 e>e e2 G->[GB] | A2 A2 A4 | [GB]2 [Ac]2 [Bd][Bd][Ac][GB] | z4 e4 | e2 e>e e2 [EGc]>[DGB] | %13
w: |||||
 z4 [Fd]4 | [Ec][Ae][EAc][CEA] [=DFB]2 [_DGB]2 | [A,CEA]6 z2 |] %16
w: |||
V:2
 [A,CE]2 [A,CE]2 F,E,C,E, | [A,CE]2 [A,DF]2[K:bass] [A,CE]4 | %2
 [E,G,E]2 [E,G,E]2 [E,G,E][E,B,E][E,A,D][E,G,D] | [A,C]2 [A,E]2 E2 z2 | [A,C]2 [A,CE]2 F,E,C,E, | %5
 [A,CE]2 [E,E]2[K:treble] [A,EA]4 | [B,EG][B,EG][B,EG][B,EG] [B,FA]2 [B,FA]2 | E4 z4 | %8
 [A,CA]2 [A,CA]>[A,CA] [A,CA]2[K:bass] z z/ D/ | [A,CE]2 [A,DF]2[K:bass] [A,CE]4 | %10
 [E,E]2 [E,E]2 [E,E][E,E][E,E][E,E] | [A,EA]2 [A,CA]2 [DG]4 | %12
 [A,CA]2 [A,CA]>[A,CA] [A,CA]2[K:bass] E,>E, | F,2 E,2 z2 A,2 | [E,A,][E,C]E,E, B,2 E,2 | %15
 A,,6 z2 |] %16
V:3
 x8 | x8 | x8 | A2 c2 z2 D2 | x8 | x8 | x8 | z4 D4 | z4 z2 [Ec]2 | x8 | x8 | c2 e2 z2 E,2 | x8 | %13
 [CFA]2 [C_GA]2 D2 z2 | x8 | x8 |] %16
V:4
 x8 | x4[K:bass] x4 | x8 | z4 [E,G,]4 | x8 | x4[K:treble] x4 | x8 | E,8 | z4 z2[K:bass] E,2 | %9
 x4[K:bass] x4 | x8 | z4 B,2 z2 | x6[K:bass] x2 | z4 D,4 | x8 | x8 |] %16

